app/assets/images/heroicons/outline/h2.svg

<svg width="24" height="24" viewBox="0 0 24 24" fill="none" xmlns="http://www.w3.org/2000/svg">
<path d="M21.7501 19.5008H16.5001V17.8914C16.5001 17.0391 16.9816 16.26 17.7439 15.8789L20.6335 14.4341C21.285 14.1083 21.7501 13.4791 21.7501 12.7507C21.7501 12.2525 21.7096 11.7637 21.6318 11.2875C21.497 10.463 20.7972 9.86577 19.9644 9.79906C19.5639 9.76697 19.1589 9.75061 18.7501 9.75061C17.9854 9.75061 17.2341 9.80784 16.5001 9.91824M2.24316 4.49316V11.9939M2.24316 11.9939V19.4946M2.24316 11.9939L12.7434 11.9946M12.7434 4.49389V11.9946M12.7434 11.9946V19.4953" stroke="black" stroke-width="1.5" stroke-linecap="round" stroke-linejoin="round"/>
</svg>

<svg xmlns="http://www.w3.org/2000/svg" fill="none" viewBox="0 0 24 24" stroke-width="1.5" stroke="currentColor" aria-hidden="true" data-slot="icon">
  <path stroke-linecap="round" stroke-linejoin="round" d="M21.75 19.5H16.5v-1.609a2.25 2.25 0 0 1 1.244-2.012l2.89-1.445c.651-.326 1.116-.955 1.116-1.683 0-.498-.04-.987-.118-1.463-.135-.825-.835-1.422-1.668-1.489a15.202 15.202 0 0 0-3.464.12M2.243 4.492v7.5m0 0v7.502m0-7.501h10.5m0-7.5v7.5m0 0v7.501"/>
</svg>
